pix/e/insert_file.svg

<!DOCTYPE svg PUBLIC "-//W3C//DTD SVG 1.1//EN" "http://www.w3.org/Graphics/SVG/1.1/DTD/svg11.dtd" [
	<!ENTITY ns_flows "http://ns.adobe.com/Flows/1.0/">
]><svg xmlns="http://www.w3.org/2000/svg" width="16" height="16" viewBox="0 -0.5 16 16" preserveAspectRatio="xMinYMid meet" overflow="visible"><path d="M14.3 9c0-1.2-.4-2.2-1.2-3-.8-.8-1.8-1.2-3-1.2-1.3 0-2.3.4-3.1 1.2-.8.8-1.2 1.8-1.2 3 0 .9.3 1.7.8 2.5.5.7 1.2 1.2 2 1.5H1L0 3h16l-.7 7h-1.2c.1-.3.2-.7.2-1zm.7-7H1l1-2h5.5L8 1h6.5l.5 1zm1 11.9c0 .3-.1.5-.3.7l-.1.1c-.2.2-.4.3-.7.3-.3 0-.5-.1-.7-.3l-2.7-3.1c-.5.3-1 .4-1.6.4-.8 0-1.5-.3-2.1-.9C7.3 10.5 7 9.8 7 9s.3-1.5.9-2.1C8.5 6.3 9.2 6 10 6s1.5.3 2.1.9c.6.6.9 1.3.9 2.1 0 .6-.1 1.1-.4 1.6l3.1 2.7c.2.1.3.4.3.6zM11.9 9c0-.5-.2-1-.6-1.4-.3-.3-.8-.5-1.3-.5s-1 .2-1.4.6c-.3.3-.5.8-.5 1.3s.2 1 .6 1.4c.4.4.8.6 1.4.6.5 0 1-.2 1.4-.6s.4-.9.4-1.4z" fill="#999"/></svg>

<?xml version="1.0" encoding="utf-8"?>
<!-- Generator: Adobe Illustrator 15.1.0, SVG Export Plug-In  -->
<!DOCTYPE svg PUBLIC "-//W3C//DTD SVG 1.1//EN" "http://www.w3.org/Graphics/SVG/1.1/DTD/svg11.dtd" [
	<!ENTITY ns_flows "http://ns.adobe.com/Flows/1.0/">
]>
<svg version="1.1"
	 xmlns="http://www.w3.org/2000/svg" xmlns:xlink="http://www.w3.org/1999/xlink" xmlns:a="http://ns.adobe.com/AdobeSVGViewerExtensions/3.0/"
	 x="0px" y="0px" width="16px" height="16px" viewBox="0 -0.5 16 16" style="overflow:visible;enable-background:new 0 -0.5 16 16;"
	 xml:space="preserve" preserveAspectRatio="xMinYMid meet">
<defs>
</defs>
<path style="fill:#999999;" d="M14.3,9c0-1.2-0.4-2.2-1.2-3c-0.8-0.8-1.8-1.2-3-1.2C8.8,4.8,7.8,5.2,7,6C6.2,6.8,5.8,7.8,5.8,9
	c0,0.9,0.3,1.7,0.8,2.5c0.5,0.7,1.2,1.2,2,1.5H1L0,3h16l-0.7,7h-1.2C14.2,9.7,14.3,9.3,14.3,9z M15,2H1l1-2h5.5L8,1h6.5L15,2z
	 M16,13.9c0,0.3-0.1,0.5-0.3,0.7l-0.1,0.1c-0.2,0.2-0.4,0.3-0.7,0.3c-0.3,0-0.5-0.1-0.7-0.3l-2.7-3.1c-0.5,0.3-1,0.4-1.6,0.4
	c-0.8,0-1.5-0.3-2.1-0.9C7.3,10.5,7,9.8,7,9c0-0.8,0.3-1.5,0.9-2.1C8.5,6.3,9.2,6,10,6c0.8,0,1.5,0.3,2.1,0.9C12.7,7.5,13,8.2,13,9
	c0,0.6-0.1,1.1-0.4,1.6l3.1,2.7C15.9,13.4,16,13.7,16,13.9z M11.9,9c0-0.5-0.2-1-0.6-1.4C11,7.3,10.5,7.1,10,7.1
	c-0.5,0-1,0.2-1.4,0.6C8.3,8,8.1,8.5,8.1,9c0,0.5,0.2,1,0.6,1.4c0.4,0.4,0.8,0.6,1.4,0.6c0.5,0,1-0.2,1.4-0.6S11.9,9.5,11.9,9z"/>
</svg>
